X:46
T:The Wasps
C:Bernie Waugh with apologies to Ralph Vaughan Williams
S:Bernie Waugh
R:Jig
M:6/8
L:1/8
K:A minor
C\
|:\
"Dm"D2A AGE|~E2DD2E|"F"F2GA2c|"C"GEC CDE|
"Dm"D2A AGE|D2DD2F|"F"A2c"C"A2F|1"Am"AGE "Dm"D2C:|2\
"Am"AGE "Dm"D2G||
|:\
"Dm"A2dd2A|"C"c2GG2c|"Dm"A2dd2A|"G"dBA GAB|
"Dm"A2d"Bb"d2e|"Am"c2d ~cBA|"G"G2B "Dm"ABA|1"G"G2B "Am"AGA:|2\
"G"G2B "Am"~GFE|]


